X: 41742
T: Valse Des Jouets
R: waltz
M: 3/4
K: Dmajor
f>e f>g f>e|d>B A>F D2|f>e f>g f>e|d>B A>F D2|
e>d e>f e>d|c2 c>d c>B|A>E A>B c>A|d>B A>F D2|
f>e f>g f>e|d>B A>F D2|f>e f>g f>e|d>B A>F D2|
e>d e>f e>d|c2 c>d c>B|A>B A>G F>E|1 D6:|2 D4 d>c||
d>A F>A G>A|B3d d>B|c>A B>c d>e|f3f d>f|
b>f d>f g>f|g3 e e>d|c>A c>e a>g|f2d2c2|
B>F F>F B>F|G3e e>d|c>B A>G F>E|F4 F2|
G>F G>A B>c|d>e f3f|g>e c>A B>c|1 d4 d>c:|2 d6||

